resources/icons/16px/data-sync.svg

<svg width="16" height="16" viewBox="0 0 16 16" fill="none" xmlns="http://www.w3.org/2000/svg">
    <path d="M7 4C10.31 4 13 3.1 13 2C13 0.9 10.31 0 7 0C3.68 0 1 0.9 1 2C1 3.1 3.68 4 7 4Z"
        fill="#5F6B7C" />
    <path
        d="M1 3.52V8C1 8.54931 1.67081 9.04874 2.75465 9.41113L4.58289 7.58289C4.94829 7.2175 5.45177 7 6 7C6.54823 7 7.05171 7.2175 7.41711 7.58289L8.00648 8.17227C8.00215 8.11507 8 8.0576 8 8C8 7.47275 8.18011 6.95567 8.56789 6.56789C8.95567 6.18011 9.47275 6 10 6C11.1236 6 12.1632 6.37463 13 7.00528V3.52C11.78 4.4 9.56 5 7 5C4.44 5 2.22 4.4 1 3.52Z"
        fill="#5F6B7C" />
    <path
        d="M1 9.52C1.32652 9.75553 1.72467 9.97099 2.18179 10.1603C2.06433 10.4169 2 10.7018 2 11C2 12.1023 2.89772 13 4 13C4.03365 13 4.06713 12.9992 4.10042 12.9976C4.3459 14.2001 5.02587 15.2485 5.96791 15.9703C3.14849 15.8064 1 14.9831 1 14V9.52Z"
        fill="#5F6B7C" />
    <path
        d="M14 11C14 8.8 12.2 7 10 7C9.4 7 9 7.4 9 8C9 8.6 9.4 9 10 9C11.1 9 12 9.9 12 11V11.59L11.71 11.29C11.53 11.11 11.28 11 11 11C10.45 11 10 11.45 10 12C10 12.28 10.11 12.53 10.29 12.71L12.29 14.71C12.47 14.89 12.72 15 13 15C13.28 15 13.53 14.89 13.71 14.71L15.71 12.71C15.89 12.53 16 12.28 16 12C16 11.45 15.55 11 15 11C14.72 11 14.47 11.11 14.29 11.3L14 11.59V11Z"
        fill="#5F6B7C" />
    <path
        d="M4.71 11.71C4.53 11.89 4.28 12 4 12C3.45 12 3 11.55 3 11C3 10.72 3.11 10.47 3.29 10.29L5.29 8.29C5.47 8.11 5.72 8 6 8C6.28 8 6.53 8.11 6.71 8.29L8.71 10.29C8.89 10.47 9 10.72 9 11C9 11.55 8.55 12 8 12C7.72 12 7.47 11.89 7.29 11.7L7 11.41V12C7 13.1 7.9 14 9 14C9.6 14 10 14.4 10 15C10 15.6 9.6 16 9 16C6.8 16 5 14.2 5 12V11.41L4.71 11.71Z"
        fill="#5F6B7C" />
</svg>

<svg xmlns="http://www.w3.org/2000/svg" viewBox="0 0 16 16">
  <path d="M7 4c3.31 0 6-.9 6-2s-2.69-2-6-2C3.68 0 1 .9 1 2s2.68 2 6 2"/>
  <path d="M1 3.52V8c0 .55.67 1.049 1.755 1.411l1.828-1.828A2 2 0 0 1 6 7c.548 0 1.052.218 1.417.583l.59.59A2 2 0 0 1 8 8c0-.527.18-1.044.568-1.432S9.473 6 10 6a4.97 4.97 0 0 1 3 1.005V3.52C11.78 4.4 9.56 5 7 5s-4.78-.6-6-1.48M1 9.52c.327.236.725.451 1.182.64A2.003 2.003 0 0 0 4.1 12.997a5.02 5.02 0 0 0 1.867 2.973C3.148 15.806 1 14.983 1 14z"/>
  <path d="M14 11c0-2.2-1.8-4-4-4-.6 0-1 .4-1 1s.4 1 1 1c1.1 0 2 .9 2 2v.59l-.29-.3a1.003 1.003 0 0 0-1.42 1.42l2 2c.18.18.43.29.71.29s.53-.11.71-.29l2-2A1.003 1.003 0 0 0 15 11c-.28 0-.53.11-.71.3l-.29.29zM4.71 11.71a1.003 1.003 0 0 1-1.42-1.42l2-2C5.47 8.11 5.72 8 6 8s.53.11.71.29l2 2A1.003 1.003 0 0 1 8 12c-.28 0-.53-.11-.71-.3L7 11.41V12c0 1.1.9 2 2 2 .6 0 1 .4 1 1s-.4 1-1 1c-2.2 0-4-1.8-4-4v-.59z"/>
</svg>
